src/icons/mjml.svg

<svg width="16" height="16" viewBox="0 0 16 16" fill="none" xmlns="http://www.w3.org/2000/svg">
<path d="M3.48011 2.646H8.89011C9.64611 2.646 10.2601 3.257 10.2601 4.008C10.2601 4.759 9.64611 5.37 8.89011 5.37H3.48011C2.72511 5.37 2.11011 4.76 2.11011 4.008C2.11011 3.257 2.72511 2.646 3.48011 2.646ZM12.4221 5.37C13.1941 5.37 13.8191 4.76 13.8191 4.008C13.8191 3.256 13.1941 2.646 12.4221 2.646C11.6501 2.646 11.0241 3.256 11.0241 4.008C11.0241 4.76 11.6501 5.37 12.4221 5.37ZM7.07811 6.713H12.4221C12.7842 6.68741 13.1416 6.80658 13.4159 7.04432C13.6902 7.28206 13.859 7.61895 13.8851 7.981C13.9421 8.733 13.3661 9.381 12.6111 9.437H7.07811C6.71585 9.46286 6.35815 9.34382 6.08363 9.10605C5.80911 8.86828 5.64023 8.53123 5.61411 8.169C5.55711 7.418 6.13411 6.769 6.88911 6.713H7.07811Z" fill="#FFCB6B"/>
<path d="M3.50808 6.685C3.87673 6.685 4.23029 6.83144 4.49096 7.09212C4.75164 7.35279 4.89808 7.70635 4.89808 8.075C4.89808 8.44365 4.75164 8.7972 4.49096 9.05788C4.23029 9.31855 3.87673 9.465 3.50808 9.465C3.13927 9.46344 2.7859 9.31671 2.52445 9.05657C2.263 8.79643 2.1145 8.4438 2.11108 8.075C2.11108 7.305 2.73408 6.685 3.50808 6.685Z" fill="#FC8289"/>
<path d="M3.48011 10.63H8.89011C9.64611 10.63 10.2601 11.24 10.2601 11.992C10.2601 12.743 9.64611 13.354 8.89011 13.354H3.48011C2.72511 13.354 2.11011 12.744 2.11011 11.992C2.11011 11.24 2.72511 10.63 3.48011 10.63ZM12.4221 13.354C13.1941 13.354 13.8191 12.744 13.8191 11.992C13.8191 11.24 13.1941 10.63 12.4221 10.63C11.6501 10.63 11.0241 11.24 11.0241 11.992C11.0241 12.744 11.6501 13.354 12.4221 13.354Z" fill="#FFCB6B"/>
</svg>

<svg xmlns="http://www.w3.org/2000/svg" width="16" height="16" fill="none"><path fill="#FFCB6B" d="M3.48 2.646h5.41c.756 0 1.37.611 1.37 1.362S9.646 5.37 8.89 5.37H3.48c-.755 0-1.37-.61-1.37-1.362 0-.751.615-1.362 1.37-1.362M12.422 5.37c.772 0 1.397-.61 1.397-1.362s-.625-1.362-1.397-1.362-1.398.61-1.398 1.362.626 1.362 1.398 1.362M7.078 6.713h5.344a1.37 1.37 0 0 1 1.463 1.268c.057.752-.519 1.4-1.274 1.456H7.078a1.37 1.37 0 0 1-1.464-1.268c-.057-.751.52-1.4 1.275-1.456h.189"/><path fill="#FC8289" d="M3.508 6.685a1.39 1.39 0 1 1 0 2.78 1.403 1.403 0 0 1-1.397-1.39c0-.77.623-1.39 1.397-1.39"/><path fill="#FFCB6B" d="M3.48 10.63h5.41c.756 0 1.37.61 1.37 1.362 0 .751-.614 1.362-1.37 1.362H3.48c-.755 0-1.37-.61-1.37-1.362s.615-1.362 1.37-1.362M12.422 13.354c.772 0 1.397-.61 1.397-1.362s-.625-1.362-1.397-1.362-1.398.61-1.398 1.362.626 1.362 1.398 1.362"/></svg>
